!!!!SEGMENT: pl-sa--55-a-i-55--005_wanski-jan-missa-solemnissima-sanctus.krn
!!!id: 18xx:343
!!!COM: Wański, Jan
!!!OTL: Missa Solemnissima – Sanctus
!!!PDT: 1830
!!!SMS-siglum: PL-SA
!!!SMS-shelfmark: 55/A I 55
!!!NIFC-rismID: 1001035335
!!!URL-scan: http://bc.bdsandomierz.pl/dlibra/publication/1331/edition/1299/content
!!!ONB-nifc: UWAGA: części Mszy: Kyrie, Christe, Gloria, Credo, Sanctus, Pleni Sunt, Benedictus, Agnus Dei
!!!SMS-variant:
!!!SMS-altvar:
**kern	**fba	**dynam	**kern	**kern	**dynam	**kern	**text	**kern	**text	**kern	**text	**kern	**text	**kern	**kern
*part9	*	*part9	*part8	*part7	*part7	*part6	*part6	*part5	*part5	*part4	*part4	*part3	*part3	*part2	*part1
*	*	*	*group3	*group3	*	*group2	*	*group2	*	*group2	*	*group2	*	*group1	*group1
*staff9	*	*	*staff8	*staff7	*	*staff6	*staff6	*staff5	*staff5	*staff4	*staff4	*staff3	*staff3	*staff2	*staff1
*I"Organo.	*	*	*I"Violin Secundo.	*I"Violino Primo.	*	*I"Baſso.	*	*I"Tenore.	*	*I"Alto.	*	*I"Canto.	*	*I"Cornu Secundo. in C.	*I"Cornu Primo in C.
*I'org	*	*	*I'vl 2	*I'vl 1	*	*I'B	*	*I'T	*	*I'A	*	*I'C	*	*I'cor 2	*I'cor 1
*clefF4	*	*	*clefG2	*clefG2	*	*clefF4	*	*clefC4	*	*clefC3	*	*clefC1	*	*clefG2	*clefG2
*	*	*	*	*	*	*	*	*	*	*	*	*	*	*Trd0c0	*Trd0c0
*k[]	*	*	*k[]	*k[]	*	*k[]	*	*k[]	*	*k[]	*	*k[]	*	*k[]	*k[]
*M2/2	*	*	*M2/2	*M2/2	*	*M2/2	*	*M2/2	*	*M2/2	*	*M2/2	*	*M2/2	*M2/2
*met(C.)	*	*	*met(C.)	*met(C.)	*	*met(C.)	*	*met(C.)	*	*met(C.)	*	*met(C.)	*	*met(c)	*met(C.)
=1	=1	=1	=1	=1	=1	=1	=1	=1	=1	=1	=1	=1	=1	=1	=1
*all\right	*	*	*all\right	*all\right	*below	*all\right	*	*all\right	*	*all\right	*	*all\right	*	*all\right	*all\right
!LO:TX:b:t=Tutti.	!	!	!LO:TX:a:t=Adagio	!	!	!	!	!	!	!	!	!	!	!	!
!LO:TX:a:t=Adagio	!	!	!	!LO:TX:a:t=Adagio.	!LO:DY:t=for	!LO:TX:a:t=Adagio.	!	!LO:TX:a:t=Adagio.	!	!LO:TX:a:t=Adagio.	!	!LO:TX:a:t=Adagio	!	!LO:TX:a:i:t=Adagio.	!LO:TX:a:i:t=Adagio
4C/	5 3	.	4e 4G/	4cc 4e/	f	4C/	San-	4e\	San-	4g\	San-	4cc\	San-	4e/	4cc\
4C/	.	.	4e 4G/	4cc 4e/	.	4C/	-ctus	4e\	-ctus	4g\	-ctus	4cc\	-ctus	4e/	4cc\
!LO:TX:a:t=Solo.	!	!	!	!	!	!	!	!	!	!	!	!	!	!	!
2r	.	.	16e/LL	(16g/LL	.	2r	.	2r	.	2r	.	2r	.	2r	2r
.	.	.	16c/	16e/)	.	.	.	.	.	.	.	.	.	.	.
.	.	.	16e/	(16g/	.	.	.	.	.	.	.	.	.	.	.
.	.	.	16c/JJ	16e/JJ)	.	.	.	.	.	.	.	.	.	.	.
.	.	.	16e/LL	(16g/LL	.	.	.	.	.	.	.	.	.	.	.
.	.	.	16c/	16e/)	.	.	.	.	.	.	.	.	.	.	.
.	.	.	16a/	(16cc/	.	.	.	.	.	.	.	.	.	.	.
.	.	.	16f/JJ	16a/JJ)	.	.	.	.	.	.	.	.	.	.	.
=2	=2	=2	=2	=2	=2	=2	=2	=2	=2	=2	=2	=2	=2	=2	=2
!	!	!	!	!	!	!LO:TX:a:t=2	!	!LO:TX:a:t=2	!	!LO:TX:a:t=2.	!	!LO:TX:a:t=2	!	!LO:TX:a:t=2	!LO:TX:a:t=2
4C/	.	.	16e/LL	(16g/LL	.	0r	.	0r	.	0r	.	0r	.	0r	0r
.	.	.	16c/	16e/)	.	.	.	.	.	.	.	.	.	.	.
.	.	.	16e/	(16g/	.	.	.	.	.	.	.	.	.	.	.
.	.	.	16c/JJ	16e/JJ)	.	.	.	.	.	.	.	.	.	.	.
8r	.	.	16e/LL	(16g/LL	.	.	.	.	.	.	.	.	.	.	.
.	.	.	16c/	16e/	.	.	.	.	.	.	.	.	.	.	.
8GG/	.	.	16d/	16f/)	.	.	.	.	.	.	.	.	.	.	.
.	.	.	16B/JJ	16d/JJ	.	.	.	.	.	.	.	.	.	.	.
4C/	7	.	8c/L	8e/L	.	.	.	.	.	.	.	.	.	.	.
.	.	.	16e/L	16g/L	.	.	.	.	.	.	.	.	.	.	.
.	.	.	16c/JJ	16e/JJ	.	.	.	.	.	.	.	.	.	.	.
4r	.	.	16e/LL	16g/LL	.	.	.	.	.	.	.	.	.	.	.
.	.	.	16c/	16e/	.	.	.	.	.	.	.	.	.	.	.
.	.	.	16a/	16cc/	.	.	.	.	.	.	.	.	.	.	.
.	.	.	16f/JJ	16a/JJ	.	.	.	.	.	.	.	.	.	.	.
=3	=3	=3	=3	=3	=3	=3	=3	=3	=3	=3	=3	=3	=3	=3	=3
4C/	.	.	16e/LL	16g/LL	.	.	.	.	.	.	.	.	.	.	.
.	.	.	16c/	(16e/	.	.	.	.	.	.	.	.	.	.	.
.	.	.	16e/	16g/	.	.	.	.	.	.	.	.	.	.	.
.	.	.	16c/JJ	16e/JJ)	.	.	.	.	.	.	.	.	.	.	.
8r	.	.	16e/LL	16g/LL	.	.	.	.	.	.	.	.	.	.	.
.	.	.	16c/	16e/	.	.	.	.	.	.	.	.	.	.	.
8GG/	7	.	16d/	16f/	.	.	.	.	.	.	.	.	.	.	.
.	.	.	16B/JJ	16d/JJ	.	.	.	.	.	.	.	.	.	.	.
!LO:TX:a:t=|:problem	!	!	!	!	!	!	!	!	!	!	!	!	!	!	!
16C\LL	.	.	16c/LL	16e'/LL	.	.	.	.	.	.	.	.	.	.	.
!LO:TX:a:t=|:problem	!	!	!	!	!	!	!	!	!	!	!	!	!	!	!
16C\	.	.	16c/	16c'/	.	.	.	.	.	.	.	.	.	.	.
!LO:TX:a:t=|:problem	!	!	!	!	!	!	!	!	!	!	!	!	!	!	!
16E\	.	.	16e/	16e'/	.	.	.	.	.	.	.	.	.	.	.
!LO:TX:a:t=|:problem	!	!	!	!	!	!	!	!	!	!	!	!	!	!	!
16G\JJ	.	.	16g/JJ	16g'/JJ	.	.	.	.	.	.	.	.	.	.	.
!LO:TX:a:t=|:problem	!	!	!	!	!	!	!	!	!	!	!	!	!	!	!
16c\LL	.	.	16cc/LL	16cc'/LL	.	.	.	.	.	.	.	.	.	.	.
!LO:TX:a:t=|:problem	!	!	!	!	!	!	!	!	!	!	!	!	!	!	!
16G\	.	.	16g/	16g'/	.	.	.	.	.	.	.	.	.	.	.
!LO:TX:a:t=|:problem	!	!	!	!	!	!	!	!	!	!	!	!	!	!	!
16E\	.	.	16e/	16e'/	.	.	.	.	.	.	.	.	.	.	.
!LO:TX:a:t=|:problem	!	!	!	!	!	!	!	!	!	!	!	!	!	!	!
16C\JJ	.	.	16c/JJ	16c'/JJ	.	.	.	.	.	.	.	.	.	.	.
=4	=4	=4	=4	=4	=4	=4	=4	=4	=4	=4	=4	=4	=4	=4	=4
!LO:TX:a:t=Tutti.	!	!	!	!	!LO:DY:t=for.	!	!	!	!	!	!	!	!	!	!
4G\	.	.	4b 4d 4G/	4gg 4b 4d 4G/	f	4G\	San-	4d\	San-	4b\	San-	4gg\	San-	4g/	4dd\
4G\	.	.	4b 4d 4G/	4gg 4b 4d 4G/	.	4G\	-ctus	4d\	-ctus	4b\	-ctus	4gg\	-ctus	4g/	4dd\
!	!	!	!	!LO:LB:g=original	!	!	!	!	!	!	!	!	!	!	!
2r	.	.	16b/LL	(16dd\LL	.	2r	.	2r	.	2r	.	2r	.	2r	2r
.	.	.	16g/	16b\	.	.	.	.	.	.	.	.	.	.	.
.	.	.	16b/	(16dd\)	.	.	.	.	.	.	.	.	.	.	.
.	.	.	16g/JJ	16b\JJ)	.	.	.	.	.	.	.	.	.	.	.
.	.	.	16b\LL	(16dd\LL	.	.	.	.	.	.	.	.	.	.	.
.	.	.	16g\	16b\)	.	.	.	.	.	.	.	.	.	.	.
.	.	.	16ee\	(16gg\	.	.	.	.	.	.	.	.	.	.	.
.	.	.	16cc\JJ	16ee\JJ)	.	.	.	.	.	.	.	.	.	.	.
!	!	!	!LO:LB:g=original	!	!	!	!	!	!	!	!	!	!	!	!
=5	=5	=5	=5	=5	=5	=5	=5	=5	=5	=5	=5	=5	=5	=5	=5
!	!	!LO:DY:t=p.	!	!	!	!LO:TX:a:t=2	!	!LO:TX:a:t=2	!	!LO:TX:a:t=2.	!	!LO:TX:a:t=2	!	!LO:TX:a:t=2	!LO:TX:a:t=2
4G\	.	p	16b/LL	(16dd\LL	.	0r	.	0r	.	0r	.	0r	.	0r	0r
.	.	.	16g/	16b\)	.	.	.	.	.	.	.	.	.	.	.
.	.	.	16b/	(16dd\	.	.	.	.	.	.	.	.	.	.	.
.	.	.	16g/JJ	16b\JJ)	.	.	.	.	.	.	.	.	.	.	.
8r	.	.	16b/LL	(16dd\LL	.	.	.	.	.	.	.	.	.	.	.
.	.	.	16g/	16b\)	.	.	.	.	.	.	.	.	.	.	.
8D\	7 #	.	16a/	(16cc\	.	.	.	.	.	.	.	.	.	.	.
.	.	.	16f#X/JJ	16a\JJ)	.	.	.	.	.	.	.	.	.	.	.
4G\	.	.	8g/L	8b\L	.	.	.	.	.	.	.	.	.	.	.
.	.	.	16b/L	16dd\L	.	.	.	.	.	.	.	.	.	.	.
.	.	.	16g/JJ	16b\JJ	.	.	.	.	.	.	.	.	.	.	.
4r	.	.	16b\LL	16dd\LL	.	.	.	.	.	.	.	.	.	.	.
.	.	.	16g\	16b\	.	.	.	.	.	.	.	.	.	.	.
.	.	.	16ee\	16gg\	.	.	.	.	.	.	.	.	.	.	.
.	.	.	16cc\JJ	16ee\JJ	.	.	.	.	.	.	.	.	.	.	.
=6	=6	=6	=6	=6	=6	=6	=6	=6	=6	=6	=6	=6	=6	=6	=6
4G\	.	.	16b\LL	(16dd\LL	.	.	.	.	.	.	.	.	.	.	.
.	.	.	16g\	16b\)	.	.	.	.	.	.	.	.	.	.	.
.	.	.	16b\	(16dd\	.	.	.	.	.	.	.	.	.	.	.
.	.	.	16g\JJ	16b\JJ)	.	.	.	.	.	.	.	.	.	.	.
8r	.	.	16b\LL	(16dd\LL	.	.	.	.	.	.	.	.	.	.	.
.	.	.	16g\	16b\	.	.	.	.	.	.	.	.	.	.	.
8D\	7 #	.	16a\	16cc\)	.	.	.	.	.	.	.	.	.	.	.
.	.	.	16f#X\JJ	16a\JJ	.	.	.	.	.	.	.	.	.	.	.
4G\	.	.	8g/L	8b\L	.	.	.	.	.	.	.	.	.	.	.
.	.	.	16B/L	16g\L	.	.	.	.	.	.	.	.	.	.	.
.	.	.	16c/JJ	16a\JJ	.	.	.	.	.	.	.	.	.	.	.
4r	.	.	16d/LL	16b\LL	.	.	.	.	.	.	.	.	.	.	.
.	.	.	16e/	16cc\	.	.	.	.	.	.	.	.	.	.	.
.	.	.	16f#/	16dd\	.	.	.	.	.	.	.	.	.	.	.
.	.	.	16g/JJ	16ee\JJ	.	.	.	.	.	.	.	.	.	.	.
!LO:PB:g=original	!	!	!	!	!	!	!	!	!	!	!	!	!	!	!
=7	=7	=7	=7	=7	=7	=7	=7	=7	=7	=7	=7	=7	=7	=7	=7
!LO:TX:a:t=Tutti.	!	!	!	!	!	!LO:N:vis=4.	!	!	!	!	!	!	!	!	!
8.G\L	.	.	8.dd\L	8.ff\L	f	8.G\	San-	8.d\	San-	8.b\L	San-	8ff\L	Do-	8.dd\L	8.ff\L
.	.	.	.	.	.	.	.	.	.	.	.	16ff\L	.	.	.
!	!	!	!	!	!	!LO:N:vis=8	!	!	!	!	!	!	!	!	!
16G\K	.	.	16dd\K	16ff\K	.	16G\	-ctus	16d\	-ctus	16b\Jk	-ctus	16ff\JJ	.	16dd\Jk	16ff\Jk
8G\	.	.	8dd\	8ff\	.	8G\L	Do-	8d\L	Do-	8b\L	Do-	8ff\	-mi-	8dd\L	8ff\L
.	7_ 5_ 3_	.	.	.	.	.	.	.	.	.	.	.	.	.	.
8G\J	.	.	8dd\J	8ff\J	.	16G\L	-mi-	16d\L	-mi-	16b\L	-mi-	8ff\	-nus	8dd\J	8ff\J
.	X X X	.	.	.	.	16G\JJ	-nus	16d\JJ	-nus	16b\JJ	-nus	.	.	.	.
!	!	!	!	!	!	!LO:TX:a:t=P:problem:mixed beam	!	!	!	!	!	!	!	!	!
8.C\L	.	.	8.g/L	8.ee\L	.	8.C/L	De-	8.c\	De-	8.g\L	De-	8ee\L	De-	4cc\	4ee\
.	.	.	.	.	.	.	.	.	.	.	.	8b\	.	.	.
16G\K	.	.	16f/K	16b\Jk	.	16G\Jk	.	16d\	.	16f\Jk	.	.	.	.	.
8A\	.	.	8e/	8cc\L	.	8A\L	-us	8c\L	-us	8e\L	-us	8cc\	-us	4r	4r
8F\J	6	.	8d/J	16a\L	.	8F\J	.	8d\J	.	8a\J	.	8dd\J	.	.	.
.	.	.	.	16dd\JJ	.	.	.	.	.	.	.	.	.	.	.
!	!	!	!	!	!	!LO:LB:g=original	!	!	!	!	!	!	!	!	!
=8	=8	=8	=8	=8	=8	=8	=8	=8	=8	=8	=8	=8	=8	=8	=8
*	*	*	*tremolo	*	*	*	*	*	*	*	*	*	*	*	*
!	!	!	!	!	!	!LO:SIC:v:l:s=ſa-	!	!LO:SIC:v:l:s=ſa-	!	!LO:SIC:v:l:s=ſa-	!	!LO:SIC:v:l:s=ſa-	!	!	!
8G\	6 4	.	16e/LL	16cc\LL	.	4G\	Sab-	4c\	Sab-	4e\	Sab-	4cc\	ſab-	4e/	4cc\
.	.	.	16e/	16cc\	.	.	.	.	.	.	.	.	.	.	.
8r	.	.	16e/	16cc\	.	.	.	.	.	.	.	.	.	.	.
.	.	.	16e/JJ	16cc\JJ	.	.	.	.	.	.	.	.	.	.	.
!	!	!	!	!	!	!	!	!	!	!	!	!	!	!	!LO:SIC:v:s=4dd
8G\	5 3	.	16d/LL	16bn\LL	.	8.G\L	.	8.d\L	.	8.g\L	.	8.b\L	.	4g/	4cc\
.	.	.	16d/	16b\	.	.	.	.	.	.	.	.	.	.	.
8r	.	.	16d/	16b\	.	.	.	.	.	.	.	.	.	.	.
.	8	.	16d/JJ	16b\JJ	.	16G\Jk	-ba-	16d\Jk	-ba-	16g\Jk	-ba-	16b\Jk	-ba-	.	.
*	*	*	*Xtremolo	*	*	*	*	*	*	*	*	*	*	*	*
!	!	!	!	!LO:LB:g=original	!	!	!	!LO:LB:g=original	!	!	!	!	!	!	!
8C/	5 3	.	8e/L	8cc\L	.	4C/	-oth	4e\	-oth	4g\	-oth.	4cc\	-oth	4e/	4cc\
8r	.	.	16e/L	16g\L	.	.	.	.	.	.	.	.	.	.	.
.	.	.	16c/JJ	16e\JJ	.	.	.	.	.	.	.	.	.	.	.
4r	.	.	16e/LL	16g/LL	.	4r	.	4r	.	4r	.	4r	.	4r	4r
.	.	.	16c/	16e/	.	.	.	.	.	.	.	.	.	.	.
.	.	.	16a/	16cc/	.	.	.	.	.	.	.	.	.	.	.
.	.	.	16f/JJ	16a/JJ	.	.	.	.	.	.	.	.	.	.	.
=9	=9	=9	=9	=9	=9	=9	=9	=9	=9	=9	=9	=9	=9	=9	=9
!LO:TX:a::t=Solo	!	!	!	!	!	!LO:TX:a:t=3	!	!LO:TX:a:t=3	!	!LO:TX:a:t=3.	!	!LO:TX:a:t=3	!	!LO:TX:a:t=3	!LO:TX:a:t=3
4C/	.	.	8e/L	8g/L	.	0r	.	0r	.	0r	.	0r	.	0r	0r
.	.	.	16e/L	(16g/L	.	.	.	.	.	.	.	.	.	.	.
.	.	.	16c/JJ	16e/JJ)	.	.	.	.	.	.	.	.	.	.	.
8r	.	.	16e/LL	16g/LL	.	.	.	.	.	.	.	.	.	.	.
.	.	.	16c/	(16e/	.	.	.	.	.	.	.	.	.	.	.
8GG/	7	.	16d/	16f/	.	.	.	.	.	.	.	.	.	.	.
.	.	.	16B/JJ	16d/JJ)	.	.	.	.	.	.	.	.	.	.	.
4C/	.	.	8c/L	8e/L	.	.	.	.	.	.	.	.	.	.	.
.	.	.	16e/L	(16g/L	.	.	.	.	.	.	.	.	.	.	.
.	.	.	16c/JJ	16e/JJ)	.	.	.	.	.	.	.	.	.	.	.
4r	.	.	16e/LL	16g/LL	.	.	.	.	.	.	.	.	.	.	.
.	.	.	16c/	16e/	.	.	.	.	.	.	.	.	.	.	.
.	.	.	16a/	(16cc/	.	.	.	.	.	.	.	.	.	.	.
.	.	.	16f/JJ	16a/JJ)	.	.	.	.	.	.	.	.	.	.	.
!	!	!	!LO:LB:g=original	!	!	!	!	!	!	!	!	!	!	!	!
=10	=10	=10	=10	=10	=10	=10	=10	=10	=10	=10	=10	=10	=10	=10	=10
4C/	.	.	8e/L	8g/L	.	.	.	.	.	.	.	.	.	.	.
.	.	.	16e/L	(16g/L	.	.	.	.	.	.	.	.	.	.	.
.	.	.	16c/JJ	16e/JJ)	.	.	.	.	.	.	.	.	.	.	.
8r	.	.	16e/LL	16g/LL	.	.	.	.	.	.	.	.	.	.	.
.	.	.	16c/	16e/	.	.	.	.	.	.	.	.	.	.	.
8GG/	7	.	16d/	(16f/	.	.	.	.	.	.	.	.	.	.	.
.	.	.	16B/JJ	16d/JJ)	.	.	.	.	.	.	.	.	.	.	.
4C/	.	.	8c/L	8e/L	.	.	.	.	.	.	.	.	.	.	.
.	.	.	16c/L	(16e/L	.	.	.	.	.	.	.	.	.	.	.
.	.	.	16B/JJ	16d/JJ)	.	.	.	.	.	.	.	.	.	.	.
8r	.	.	16c/LL	(16e/LL	.	.	.	.	.	.	.	.	.	.	.
.	.	.	16e/	16cc/	.	.	.	.	.	.	.	.	.	.	.
8C/	.	.	16e/	16cc/	.	.	.	.	.	.	.	.	.	.	.
.	.	.	16c/JJ	16e/JJ)	.	.	.	.	.	.	.	.	.	.	.
=11	=11	=11	=11	=11	=11	=11	=11	=11	=11	=11	=11	=11	=11	=11	=11
4GG/	.	.	2B/	2d/	.	1r	.	1r	.	1r	.	1r	.	1r	1r
4r	.	.	.	.	.	.	.	.	.	.	.	.	.	.	.
2r	.	.	2r	2r	.	.	.	.	.	.	.	.	.	.	.
==	==	==	==	==	==	==	==	==	==	==	==	==	==	==	==
*-	*-	*-	*-	*-	*-	*-	*-	*-	*-	*-	*-	*-	*-	*-	*-
!!!system-decoration: [g1][g2][g3]s9
!!!ENC: Andrzej Borzym
!!!END:2020-06-08
!!!ENC: Marta Lawrence
!!!END: 2020-11-24
